!!!!SEGMENT: pl-sa--370-a-viii-10--003_anonim--concert-na-bolze-narodzenie-o-jozefie-czego-chcecie.krn
!!!cenid: 17xx:1352
!!!COM: Anonim
!!!COM-rismID: pe30004985
!!!CDT:
!!!CNT:
!!!OPR: Concert na Boże Narodzenie
!!!OTL: O Józefie czego chcecie
!!!OMV: 003
!!!PDT:
!!!AGN: Sacred; Motet; Christmas
!!!SMS-siglum: PL-SA
!!!SMS-shelfmark: 370/A VIII 10
!!!SMS-shelfwork: 001-003 M
!!!SMS-variant:
!!!SMS-altvar:
!!!NIFC-rismSourceID: 1001069976
!!!NIFC-rismChildID: 1001069976
!!!NIFC-islandoraID:
!!!URL-pdf-islandora:
!!!URL-scan: https://bc.bdsandomierz.pl/dlibra/publication/1674/edition/1642/content @EN{Scan in the Sandomierz Diocese Digital Library} @PL{Skany w portalu Cyfrowa Biblioteka Diecezjalna w Sandomierzu}
!!!ONB-nifc: UWAGA: części Concertu: 1. Gloria in excelsis (Et in terra to część Glorii), 2. Puer natus in Betleem, 3. O Józefie czego chcecie. Uwaga: okładka zrobiona z innego utworu
!!!AIN: 2 soprn 2 violn
!!!key: B-
**kern	**kern	**kern	**kern	**text	**text	**text	**kern	**text	**text	**text
*part5	*part4	*part3	*part2	*part2	*part2	*part2	*part1	*part1	*part1	*part1
*staff5	*staff4	*staff3	*staff2	*staff2	*staff2	*staff2	*staff1	*staff1	*staff1	*staff1
*I"Baſso.	*I"Violino 2do.	*I"Violino Primo-	*I"Canto 2do	*	*	*	*I"Canto=	*	*	*
*I'bc	*I'vl2	*I'vl1	*I'S2	*	*	*	*I'S1	*	*	*
*	*Ivioln	*Ivioln	*Isoprn	*	*	*	*Isoprn	*	*	*
*ICstr	*ICstr	*ICstr	*ICvox	*	*	*	*ICvox	*	*	*
*IGcont	*	*	*IGsolo	*	*	*	*IGsolo	*	*	*
*clefF4	*clefG2	*clefG2	*clefC1	*	*	*	*clefC1	*	*	*
*k[b-e-]	*k[b-e-]	*k[b-e-]	*k[b-e-]	*	*	*	*k[b-e-]	*	*	*
*>[A,B,B,C,D,D,E,F,F]	*>[A,B,B,C,D,D,E,F,F]	*>[A,B,B,C,D,D,E,F,F]	*>[A,B,B,C,D,D,E,F,F]	*	*	*	*>[A,B,B,C,D,D,E,F,F]	*	*	*
*B-:	*B-:	*B-:	*B-:	*	*	*	*B-:	*	*	*
*M4/4	*M4/4	*M4/4	*M4/4	*	*	*	*M4/4	*	*	*
*met(c)	*met(c)	*met(c)	*met(c)	*	*	*	*met(c)	*	*	*
=1	=1	=1	=1	=1	=1	=1	=1	=1	=1	=1
*>A	*>A	*>A	*>A	*	*	*	*>A	*	*	*
*	*	*	*	*	*ij	*ij	*	*	*ij	*ij
!LO:TX:a:i:t=Adagio	!	!	!	!	!	!	!LO:TX:t=P:problem=znaki [b- e-]	!	!	!
!LO:TX:b:t=o Jozefie	!	!	!	!	!	!	!LO:TX:a:i:t=Adagio	!	!	!
!LO:TX:t=P:problem=znaki [E- BB-]	!LO:TX:a:t=o Jozefie Tacett.	!LO:TX:a:t=o Jozefie Tacett.	!	!	!	!	!LO:TX:t=P:problem=znaki [b- e-]	!	!	!
1BB-/;	1ryy	1ryy	8dd\L	o	o	o	8ff\	o	o	o
.	.	.	8dd\J	Jo-	Jo-	Jo-	8ff\	Jo-	Jo-	Jo-
.	.	.	8.dd\L	-ze-	-ze-	-ze-	8ff\	-ze-	-ze-	-ze-
.	.	.	.	.	.	.	8ee-\	.	.	.
!	!	!	!LO:TX:a:i:t=c	!	!	!	!	!	!	!
.	.	.	16cc\Jk	.	.	.	.	.	.	.
*	*	*	*2\right	*	*	*	*	*	*	*
.	.	.	2b-;\	-fie	-fie	-fie	4dd;\	-fie	-fie	-fie
.	.	.	.	.	.	.	4r	.	.	.
*	*	*	*clefF4	*	*	*	*	*	*Xij	*Xij
=2	=2	=2	=2	=2	=2	=2	=2	=2	=2	=2
!	!	!	!	!	!	!	!LO:TX:a:t=1	!	!	!
8B-\L	1ryy	1ryy	8B-\L	cze-	cze-	cze-	1r	.	.	.
8B-\J	.	.	8B-\J	-go	-go	-go	.	.	.	.
4B-\	.	.	4B-\	chce-	chce-	chce-	.	.	.	.
*2\right	*	*	*	*	*	*	*	*	*	*
!LO:TX:t=P:problem=2\right&colon; global	!	!	!	!	!	!	!	!	!	!
2F;\	.	.	4F\	-cię	-cię	-cię	.	.	.	.
.	.	.	4r	.	.	.	.	.	.	.
*	*	*	*clefC1	*	*Xij	*Xij	*	*	*	*
=3	=3	=3	=3	=3	=3	=3	=3	=3	=3	=3
1BB-/	1ryy	1ryy	8dd\	po-	po-	Dzię-	8ff\	po-	po-	Dzię-
.	.	.	8dd\	-wiedz-	-wiedz-	-ku-	8ff\	-wiedz-	-wiedz-	-ku-
.	.	.	8dd\	-że	-że	-je-	8ff\	-że	-że	-je-
.	.	.	8dd\	nam	nam	-my	8ff\	nam	nam	-my
.	.	.	8dd\	gdzie	a	żes	8ff\	gdzie	a	żes
.	.	.	8b-\	się	gdzie	po-	8dd\	się	gdzie	po-
.	.	.	8.dd\	Je-	le-	-ka-	8.bb-\	Je-	le-	-ka-
!	!	!	!LO:N:vis=8	!	!	!	!	!	!	!
.	.	.	16ee-\	-zus	-ży	-zał	16gg\	-zus	-ży	-zał
=4	=4	=4	=4	=4	=4	=4	=4	=4	=4	=4
2BB-/	1ryy	1ryy	8dd\	Na-	Zba-	Je-	4ff\	Na-	Zba-	Je-
.	.	.	16dd\LL	-ro-	-wi-	-zu-	.	.	.	.
.	.	.	16cc\JJ	.	.	.	.	.	.	.
.	.	.	4b-;\	-dził	-ciel	-sa	8ff\L	-ro-	-wi-	-zu-
.	.	.	.	.	.	.	8ee-\J	.	.	.
*	*	*	*clefF4	*	*	*	*2\right	*	*	*
8B-\L	.	.	8B-\L	w Be-	we	chwal-	2dd;\	-dził	-ciel	-sa
8B-\J	.	.	8B-\J	-tle-	Zło-	-cie	.	.	.	.
4F\	.	.	4F\	-m	-bie	go	.	.	.	.
!	!	!	!LO:LB:g=original	!	!	!	!	!	!	!
=5	=5	=5	=5	=5	=5	=5	=5	=5	=5	=5
!LO:TX:t=P:problem=takt pauzy w S1	!LO:TX:t=P:problem=takt pauzy w S1	!LO:TX:t=P:problem=takt pauzy w S1	!LO:TX:t=P:problem=takt pauzy w S1	!	!	!	!LO:TX:a:t=1	!	!	!
1ryy	1ryy	1ryy	1ryy	.	.	.	1r	.	.	.
=6	=6	=6	=6	=6	=6	=6	=6	=6	=6	=6
*	*	*	*clefC1	*	*	*	*	*	*	*
2BB-/	1ryy	1ryy	8dd\	a	a	a	4ff\	a	a	a
.	.	.	16dd\LL	Kie-	na	ja-	.	.	.	.
.	.	.	16cc\JJ	.	.	.	.	.	.	.
.	.	.	4b-\	-dy	czym	-ko	8ff\L	kie-	na	ja-
.	.	.	.	.	.	.	8ee-\J	.	.	.
*	*	*	*clefF4	*	*	*	*	*	*	*
8B-\L	.	.	8B-\L	w puł-	na	dwo-	2dd;\	-dy	czym	-ko
8B-\J	.	.	8B-\J	-no-	sia-	-ja-	.	.	.	.
4F;\	.	.	4F;\	-cy.	-nie	-ko.	.	.	.	.
*	*	*	*clefC1	*	*	*	*	*	*	*
!LO:LB:g=original	!	!	!	!	!	!	!	!	!	!
=7	=7	=7	=7	=7	=7	=7	=7	=7	=7	=7
!	!	!	!LO:TX:t=P:problem=takt pauzy w S1	!	!	!	!	!	!	!
!LO:TX:t=P:problem=takt pauzy w S1	!LO:TX:t=P:problem=takt pauzy w S1	!LO:TX:t=P:problem=takt pauzy w S1	!LO:TX:t=P:problem=brak zmiany klucza (pomyłka kopisty)	!	!	!	!LO:TX:a:t=1	!	!	!
1ryy	1ryy	1ryy	1ryy	.	.	.	1r	.	.	.
!	!LO:LB:g=original	!	!	!	!	!	!	!	!	!
=8!|:	=8!|:	=8!|:	=8!|:	=8!|:	=8!|:	=8!|:	=8!|:	=8!|:	=8!|:	=8!|:
*>B	*>B	*>B	*>B	*	*	*	*>B	*	*	*
*M2/4	*M2/4	*M2/4	*M2/4	*	*ij	*	*M2/4	*	*ij	*
!LO:TX:t=P:problem=mixed beam	!	!	!	!	!	!	!	!	!	!
!LO:TX:a:i:t=allo.	!	!	!	!	!	!	!	!	!	!
!LO:TX:b:i:t=Chwała Bogu=	!	!	!	!	!	!	!LO:TX:a:i:t=allo.	!	!	!
8BB-/L	8dd\L	8ff\L	8dd\	Chwa-	Chwa-	Ser-	8ff\	Chwa-	Chwa-	.
8B-\J	8ee-\	8gg\	8ee-\	-ła	-ła	-cem	8gg\	-ła	-ła	.
!LO:TX:t=P:problem=mixed beam	!	!LO:TX:b:i:t=chwała Bogu_	!	!	!	!	!	!	!	!
8BB-/L	8dd\	8ff\	8dd\	Bo-	Bo-	us-	8ff\	Bo-	Bo-	.
8B-\J	8cc\J	8ee-\J	8cc\	-gu	-gu	-ty.	8ee-\	-gu	-gu	.
!	!	!	!	!	!	!	!LO:LB:g=original	!	!	!
=9	=9	=9	=9	=9	=9	=9	=9	=9	=9	=9
!LO:TX:t=P:problem=mixed beam	!	!LO:SIC:v:s=8dd	!	!	!	!	!	!	!	!
8BB-/L	8b-/L	8ee-\L	8b-\	Z wy-	Z wy-	Wy-	8dd\	z Wy-	z Wy-	.
!	!	!LO:SIC:v:s=8cc	!	!	!	!	!	!	!	!
8B-\	8a/	8dd\	8a\	-so-	-so-	-zna-	8cc\	-so-	-so-	.
!	!	!LO:SIC:v:s=8dd	!	!	!	!	!	!	!	!
!	!	!LO:TX:a:t=d	!	!	!	!	!	!	!	!
8BB-/	8b-/	8ee-\	8b-\	-ko-	-ko-	-way-	8dd\	-ko-	-ko-	.
8B-\J	8cc/J	8ee-\J	8cc\	-ści	-ści	-my.	8ee-\	-ści	-ści	.
=10	=10	=10	=10	=10	=10	=10	=10	=10	=10	=10
!LO:TX:t=P:problem=mixed beam	!	!	!	!	!	!	!	!	!	!
8BB-/L	8dd\L	8ff\L	8dd\	że	że	zBa-	8ff\	że	że	.
8B-\	8ee-\	8gg\	8ee-\	nas	nas	-wi-	8gg\	nas	nas	.
8BB-/	8dd\	8ff\	8dd\	na-	na-	-cie-	8ff\	na-	na-	.
8B-\J	8cc\J	8ee-\J	8cc\	-ba-	-ba-	-la	8ee-\	-ba-	-ba-	.
=11	=11	=11	=11	=11	=11	=11	=11	=11	=11	=11
!LO:TX:t=P:problem=mixed beam	!	!	!	!	!	!	!	!	!	!
8BB-/L	8b-/L	8dd\L	8b-\	-wił	-wił	Wy-	8dd\	-wił	-wił	.
8B-\	8a/	8cc\	8a\	ra-	ra-	-chwa-	8cc\	ra-	ra-	.
8BB-/	8b-/	8dd\	8b-\	-do-	-do-	-lay-	8dd\	-do-	-do-	.
8B-\J	8cc/J	8ee-\J	8cc\	-ści	-ści	-my	8ee-\	-ści	-ści	.
=12	=12	=12	=12	=12	=12	=12	=12	=12	=12	=12
!LO:TX:t=P:problem=błędna nuta A i dopisana B-	!	!	!	!	!	!	!	!	!	!
!LO:TX:a:i:t=b.	!	!	!	!	!	!	!	!	!	!
8B-\L 8A\	8b-\L	8dd\L	8b-\L	na	na	na	8dd\L	na	na	.
8F\	8b-\J	8dd\J	8b-\J	wie-	wie-	wie-	8dd\J	wie-	wie-	.
!LO:TX:a:i:t=b.	!	!	!	!	!	!	!	!	!	!
8B-\ 8A\	4b-\	4dd\	4b-\	-ki	-ki	-ki	4dd\	-ki	-ki	.
8F\J	.	.	.	.	.	.	.	.	.	.
=13	=13	=13	=13	=13	=13	=13	=13	=13	=13	=13
*	*	*	*	*ij	*	*ij	*	*ij	*	*
8c\L	8cc\L	8ee-\L	8cc\L	na	na	na	8ee-\L	na	na	.
8F\	8cc\J	8ee-\J	8cc\J	wie-	wie-	wie-	8ee-\J	wie-	wie-	.
8c\	4cc\	4ee-\	4cc\	-ki	-ki	-ki	4ee-\	-ki	-ki	.
8F\J	.	.	.	.	.	.	.	.	.	.
*	*	*	*	*Xij	*	*Xij	*	*Xij	*	*
!	!	!LO:LB:g=original	!	!	!	!	!	!	!	!
=14	=14	=14	=14	=14	=14	=14	=14	=14	=14	=14
4B-\	4dd\	4ff\	8dd\	na	na	na	4ff\	na	na	.
.	.	.	16ee-\LL	wie-	wie-	wie-	.	.	.	.
.	.	.	16dd\JJ	.	.	.	.	.	.	.
!	!LO:TX:a:t=d	!	!	!	!	!	!	!	!	!
4F\	8dd\L	8ff\L	4cc\	-ki	-ki	-ki	8ff\L	Wie-	Wie-	.
.	8cc\J	8ee-\J	.	.	.	.	8ee-\J	.	.	.
=15	=15	=15	=15	=15	=15	=15	=15	=15	=15	=15
!	!	!	!LO:TX:t=P:problem=brak taktu	!	!	!	!	!	!	!
4BB-/	4b-\	4dd\	2ryy	.	.	.	4dd\	-ki	-ki	.
!	!LO:TX:b:t=o Jozefie Da Capo po 2. razy. a ZaKazdy razem, Chwała Bogu	!LO:TX:b:t=o Jozefie Da Capo. po 2 razy. a Za Kazdym -\nrazem. chwała Bogu	!	!	!	!	!	!	!	!
4r	4r	4r	.	.	.	.	4r	.	.	.
!LO:LB:g=original	!	!	!	!	!	!	!	!	!	!
=16:|!	=16:|!	=16:|!	=16:|!	=16:|!	=16:|!	=16:|!	=16:|!	=16:|!	=16:|!	=16:|!
*>C	*>C	*>C	*>C	*	*	*	*>C	*	*	*
*M4/4	*M4/4	*M4/4	*M4/4	*	*	*	*M4/4	*	*Xij	*
*met(c)	*met(c)	*met(c)	*met(c)	*	*	*	*met(c)	*	*	*
!LO:TX:b:t=o Jozefie	!	!	!LO:TX:t=P:problem=partia nie rozpisana	!	!	!	!	!	!	!
1BB-/;	1ryy	1ryy	1ryy	.	.	.	1ryy	.	.	.
=17	=17	=17	=17	=17	=17	=17	=17	=17	=17	=17
8B-\L	1ryy	1ryy	1ryy	.	.	.	1ryy	.	.	.
8B-\J	.	.	.	.	.	.	.	.	.	.
4B-\	.	.	.	.	.	.	.	.	.	.
2F;\	.	.	.	.	.	.	.	.	.	.
=18	=18	=18	=18	=18	=18	=18	=18	=18	=18	=18
1BB-/	1ryy	1ryy	1ryy	.	.	.	1ryy	.	.	.
=19	=19	=19	=19	=19	=19	=19	=19	=19	=19	=19
2BB-/	1ryy	1ryy	1ryy	.	.	.	1ryy	.	.	.
8B-\L	.	.	.	.	.	.	.	.	.	.
8B-\J	.	.	.	.	.	.	.	.	.	.
4F\	.	.	.	.	.	.	.	.	.	.
=20	=20	=20	=20	=20	=20	=20	=20	=20	=20	=20
2BB-/	1ryy	1ryy	1ryy	.	.	.	1ryy	.	.	.
8B-\L	.	.	.	.	.	.	.	.	.	.
8B-\J	.	.	.	.	.	.	.	.	.	.
4F;\	.	.	.	.	.	.	.	.	.	.
=21!|:	=21!|:	=21!|:	=21!|:	=21!|:	=21!|:	=21!|:	=21!|:	=21!|:	=21!|:	=21!|:
*>D	*>D	*>D	*>D	*	*	*	*>D	*	*	*
*M2/4	*M2/4	*M2/4	*M2/4	*	*	*	*M2/4	*	*	*
*tremolo	*	*	*	*	*	*	*	*	*	*
!LO:TX:t=P:problem=mixed beam	!	!	!	!	!	!	!	!	!	!
!LO:TX:a:i:t=allo.	!	!	!	!	!	!	!	!	!	!
!LO:TX:b:i:t=chwała Bogu-	!	!	!	!	!	!	!	!	!	!
8BB-/L	8dd\Lyy	8ff\Lyy	2ryy	.	.	.	2ryy	.	.	.
8B-\	8ee-\yy	8gg\yy	.	.	.	.	.	.	.	.
!	!	!LO:TX:b:i:t=chwała Bogu=	!	!	!	!	!	!	!	!
8BB-/	8dd\yy	8ff\yy	.	.	.	.	.	.	.	.
8B-\J	8cc\Jyy	8ee-\Jyy	.	.	.	.	.	.	.	.
=22	=22	=22	=22	=22	=22	=22	=22	=22	=22	=22
!LO:TX:t=P:problem=mixed beam	!	!LO:SIC:v:s=8dd	!	!	!	!	!	!	!	!
8BB-/L	8b-\Lyy	8ee-\Lyy	2ryy	.	.	.	2ryy	.	.	.
!	!	!LO:SIC:v:s=8cc	!	!	!	!	!	!	!	!
8B-\	8a\yy	8dd\yy	.	.	.	.	.	.	.	.
!	!	!LO:SIC:v:s=8dd	!	!	!	!	!	!	!	!
!	!	!LO:TX:a:t=d	!	!	!	!	!	!	!	!
8BB-/	8b-\yy	8ee-\yy	.	.	.	.	.	.	.	.
8B-\J	8cc\Jyy	8ee-\Jyy	.	.	.	.	.	.	.	.
=23	=23	=23	=23	=23	=23	=23	=23	=23	=23	=23
!LO:TX:t=P:problem=mixed beam	!	!	!	!	!	!	!	!	!	!
8BB-/L	8dd\Lyy	8ff\Lyy	2ryy	.	.	.	2ryy	.	.	.
8B-\	8ee-\yy	8gg\yy	.	.	.	.	.	.	.	.
8BB-/	8dd\yy	8ff\yy	.	.	.	.	.	.	.	.
8B-\J	8cc\Jyy	8ee-\Jyy	.	.	.	.	.	.	.	.
=24	=24	=24	=24	=24	=24	=24	=24	=24	=24	=24
!LO:TX:t=P:problem=mixed beam	!	!	!	!	!	!	!	!	!	!
8BB-/L	8b-\Lyy	8dd\Lyy	2ryy	.	.	.	2ryy	.	.	.
8B-\	8a\yy	8cc\yy	.	.	.	.	.	.	.	.
8BB-/	8b-\yy	8dd\yy	.	.	.	.	.	.	.	.
8B-\J	8cc\Jyy	8ee-\Jyy	.	.	.	.	.	.	.	.
*Xtremolo	*	*	*	*	*	*	*	*	*	*
=25	=25	=25	=25	=25	=25	=25	=25	=25	=25	=25
!LO:TX:t=P:problem=błędna nuta A i dopisana B-	!	!	!	!	!	!	!	!	!	!
!LO:TX:a:i:t=b	!	!	!	!	!	!	!	!	!	!
8B-\L 8A\	8b-\Lyy	8dd\Lyy	2ryy	.	.	.	2ryy	.	.	.
8F\	8b-\Jyy	8dd\Jyy	.	.	.	.	.	.	.	.
!LO:TX:a:i:t=b.	!	!	!	!	!	!	!	!	!	!
8B-\ 8A\	4b-\yy	4dd\yy	.	.	.	.	.	.	.	.
8F\J	.	.	.	.	.	.	.	.	.	.
!LO:LB:g=original	!	!	!	!	!	!	!	!	!	!
=26	=26	=26	=26	=26	=26	=26	=26	=26	=26	=26
8c\L	8cc\Lyy	8ee-\Lyy	2ryy	.	.	.	2ryy	.	.	.
8F\	8cc\Jyy	8ee-\Jyy	.	.	.	.	.	.	.	.
8c\	4cc\yy	4ee-\yy	.	.	.	.	.	.	.	.
8F\J	.	.	.	.	.	.	.	.	.	.
=27	=27	=27	=27	=27	=27	=27	=27	=27	=27	=27
4B-\	4dd\yy	4ff\yy	2ryy	.	.	.	2ryy	.	.	.
!	!LO:TX:a:t=d	!	!	!	!	!	!	!	!	!
4F\	8dd\Lyy	8ff\Lyy	.	.	.	.	.	.	.	.
.	8cc\Jyy	8ee-\Jyy	.	.	.	.	.	.	.	.
=28	=28	=28	=28	=28	=28	=28	=28	=28	=28	=28
4BB-/	4b-\yy	4dd\yy	2ryy	.	.	.	2ryy	.	.	.
4r	4ryy	4ryy	.	.	.	.	.	.	.	.
=29:|!	=29:|!	=29:|!	=29:|!	=29:|!	=29:|!	=29:|!	=29:|!	=29:|!	=29:|!	=29:|!
*>E	*>E	*>E	*>E	*	*	*	*>E	*	*	*
*M4/4	*M4/4	*M4/4	*M4/4	*	*	*	*M4/4	*	*	*
*met(c)	*met(c)	*met(c)	*met(c)	*	*	*	*met(c)	*	*	*
1BB-/;	1ryy	1ryy	1ryy	.	.	.	1ryy	.	.	.
=30	=30	=30	=30	=30	=30	=30	=30	=30	=30	=30
8B-\L	1ryy	1ryy	1ryy	.	.	.	1ryy	.	.	.
8B-\J	.	.	.	.	.	.	.	.	.	.
4B-\	.	.	.	.	.	.	.	.	.	.
2F;\	.	.	.	.	.	.	.	.	.	.
=31	=31	=31	=31	=31	=31	=31	=31	=31	=31	=31
1BB-/	1ryy	1ryy	1ryy	.	.	.	1ryy	.	.	.
=32	=32	=32	=32	=32	=32	=32	=32	=32	=32	=32
2BB-/	1ryy	1ryy	1ryy	.	.	.	1ryy	.	.	.
8B-\L	.	.	.	.	.	.	.	.	.	.
8B-\J	.	.	.	.	.	.	.	.	.	.
4F\	.	.	.	.	.	.	.	.	.	.
=33	=33	=33	=33	=33	=33	=33	=33	=33	=33	=33
2BB-/	1ryy	1ryy	1ryy	.	.	.	1ryy	.	.	.
8B-\L	.	.	.	.	.	.	.	.	.	.
8B-\J	.	.	.	.	.	.	.	.	.	.
4F;\	.	.	.	.	.	.	.	.	.	.
=34!|:	=34!|:	=34!|:	=34!|:	=34!|:	=34!|:	=34!|:	=34!|:	=34!|:	=34!|:	=34!|:
*>F	*>F	*>F	*>F	*	*	*	*>F	*	*	*
*M2/4	*M2/4	*M2/4	*M2/4	*	*	*	*M2/4	*	*	*
*tremolo	*	*	*	*	*	*	*	*	*	*
!LO:TX:t=P:problem=mixed beam	!	!	!	!	!	!	!	!	!	!
!LO:TX:b:i:t=Sercem=	!	!	!	!	!	!	!	!	!	!
8BB-/L	8dd\Lyy	8ff\Lyy	2ryy	.	.	.	8ff\	Ser-	.	.
8B-\	8ee-\yy	8gg\yy	.	.	.	.	8gg\	-cem	.	.
!	!	!LO:TX:b:i:t=chwała Bogu=	!	!	!	!	!	!	!	!
8BB-/	8dd\yy	8ff\yy	.	.	.	.	8ff\	us-	.	.
8B-\J	8cc\Jyy	8ee-\Jyy	.	.	.	.	8ee-\	-ty	.	.
=35	=35	=35	=35	=35	=35	=35	=35	=35	=35	=35
!LO:TX:t=P:problem=mixed beam	!	!LO:SIC:v:s=8dd	!	!	!	!	!	!	!	!
8BB-/L	8b-/Lyy	8ee-\Lyy	2ryy	.	.	.	8dd\	Wy-	.	.
!	!	!LO:SIC:v:s=8cc	!	!	!	!	!	!	!	!
8B-\	8a/yy	8dd\yy	.	.	.	.	8cc\	-zna-	.	.
!	!	!LO:SIC:v:s=8dd	!	!	!	!	!	!	!	!
!	!	!LO:TX:a:t=d	!	!	!	!	!	!	!	!
8BB-/	8b-/yy	8ee-\yy	.	.	.	.	8dd\	-way-	.	.
8B-\J	8cc/Jyy	8ee-\Jyy	.	.	.	.	8ee-\	-my	.	.
!LO:LB:g=original	!	!	!	!	!	!	!	!	!	!
=36	=36	=36	=36	=36	=36	=36	=36	=36	=36	=36
!LO:TX:t=P:problem=mixed beam	!	!	!	!	!	!	!	!	!	!
8BB-/L	8dd\Lyy	8ff\Lyy	2ryy	.	.	.	8ff\	zBa-	.	.
8B-\	8ee-\yy	8gg\yy	.	.	.	.	8gg\	-wi-	.	.
8BB-/	8dd\yy	8ff\yy	.	.	.	.	8ff\	-cie-	.	.
8B-\J	8cc\Jyy	8ee-\Jyy	.	.	.	.	8ee-\	-la	.	.
=37	=37	=37	=37	=37	=37	=37	=37	=37	=37	=37
!LO:TX:t=P:problem=mixed beam	!	!	!	!	!	!	!	!	!	!
8BB-/L	8b-/Lyy	8dd\Lyy	2ryy	.	.	.	8dd\	Wy-	.	.
8B-\	8a/yy	8cc\yy	.	.	.	.	8cc\	-chwa-	.	.
8BB-/	8b-/yy	8dd\yy	.	.	.	.	8dd\	-lay-	.	.
8B-\J	8cc/Jyy	8ee-\Jyy	.	.	.	.	8ee-\	-my.	.	.
*Xtremolo	*	*	*	*	*	*	*	*	*	*
=38	=38	=38	=38	=38	=38	=38	=38	=38	=38	=38
!LO:TX:t=P:problem=błędna nuta A i dopisana B-	!	!	!	!	!	!	!	!	!	!
!LO:TX:a:i:t=b.	!	!	!	!	!	!	!	!	!	!
8B-\|L 8A\	8b-\Lyy	8dd\Lyy	2ryy	.	.	.	8dd\L	na	.	.
8F\|	8b-\Jyy	8dd\Jyy	.	.	.	.	8dd\J	wie-	.	.
!LO:TX:a:i:t=b.	!	!	!	!	!	!	!	!	!	!
8B-\| 8A\	4b-\yy	4dd\yy	.	.	.	.	4dd\	-ki	.	.
8F\J|	.	.	.	.	.	.	.	.	.	.
=39	=39	=39	=39	=39	=39	=39	=39	=39	=39	=39
*	*	*	*	*	*	*	*	*ij	*	*
8c\L|	8cc\Lyy	8ee-\Lyy	2ryy	.	.	.	8ee-\L	na	.	.
8F\|	8cc\Jyy	8ee-\Jyy	.	.	.	.	8ee-\J	wie-	.	.
8c\|	4cc\yy	4ee-\yy	.	.	.	.	4ee-\	-ki	.	.
8F\J|	.	.	.	.	.	.	.	.	.	.
*	*	*	*	*	*	*	*	*Xij	*	*
=40	=40	=40	=40	=40	=40	=40	=40	=40	=40	=40
4B-\	4dd\yy	4ff\yy	2ryy	.	.	.	4ff\	na	.	.
!	!LO:TX:a:t=d	!	!	!	!	!	!	!	!	!
4F\	8dd\Lyy	8ff\Lyy	.	.	.	.	8ff\L	wie-	.	.
.	8cc\Jyy	8ee-\Jyy	.	.	.	.	8ee-\J	.	.	.
=41	=41	=41	=41	=41	=41	=41	=41	=41	=41	=41
4BB-/	4b-\yy	4dd\yy	2ryy	.	.	.	4dd;\	-ki	.	.
4r	4ryy	4ryy	.	.	.	.	4r	.	.	.
=:|!	=:|!	=:|!	=:|!	=:|!	=:|!	=:|!	=:|!	=:|!	=:|!	=:|!
*-	*-	*-	*-	*-	*-	*-	*-	*-	*-	*-
!!!system-decoration: [(s1,s2)][(s3,s4)]s5
!!!RDF**kern: | = vertical stroke
!!!ENC: Andrzej Borzym
!!!END: 2020-11-28
!!!EED: Andrzej Borzym
!!!EEV: 2021-12-30
!!!YEC: Copyright 2022 Narodowy Instytut Fryderyka Chopina (https://polishscores.org)
!!!YEM: License CC-BY-4.0 (https://creativecommons.org/licenses/by/4.0)
